X:32
T:Bodapolska #12
R:polska O
Z:2000 Brian Wilson 
Z:Music for Happy Feet #12
M:3/4
L:1/8
K:D
|: A>f d2 A>B- \
| BA/G/ F2 A2 \
| A>g e<c A>G \
| F>d A<F A2- \
| A>f d2 A>B- \
| BA/G/ F2 A2 \
| A,>C E<G E>C \
| D2 D4 :|
P:B
|: B>d g2 g2 \
| A>d f2 f>A- \
| A>g e<c A>G \
| F>d A<F A2 \
| B>d g2 g2 \
| A>d f2 f>A- \
| A>g e<c A>c \
| {c}d2 d4 :|
